proprietary/assets/icons/geld-en-financien/stapel-munten-met-vinkje.svg

<svg height="64" viewBox="0 0 64 64" width="64" xmlns="http://www.w3.org/2000/svg"><path d="m0 0h64v64h-64z" fill="none"/><path d="m24.8999 44.0449c-10.1519-.5175-12.4477-4.6852-12.6968-5.3868-.0898-.2529-.0884-.3882-.0303-.4468 2.9267 2.0229 7.1838 3.3891 12.0806 3.7124-.188-1.8437.5087-3.7247 2.0127-4.973 2.1499-1.7837 5.2725-1.749 7.3823.0781l3.5528 3.0778c4.7436-1.8846 7.7988-5.0079 7.7988-8.6141v-5.0014c0-.2245-.0339-.4433-.0573-.6639-1.2642 1.6137-6.4448 7.2704-17.9099 7.2704-11.9704 0-14.5641-4.6913-14.8298-5.4396-.0898-.2529-.0884-.3882-.0303-.4468 3.3669 2.3272 8.4917 3.7888 14.3289 3.7888 10.373 0 18.4984-4.618 18.4984-10.5075 0-.8654 0-4.1329 0-5.0014 0-5.8832-8.1254-10.4911-18.4984-10.4911-10.376 0-18.5016 4.6079-18.5016 10.4911v5.0014c0 1.0507.269 2.0582.7529 3.009-.4816.9447-.7529 1.9449-.7529 2.9896v5.0014c0 1.0484.2683 2.0538.7501 3.0027-.4824.9463-.7501 1.9494-.7501 2.9959v5.0014c0 5.8895 8.1256 10.5075 18.5016 10.5075 1.2004 0 2.3665-.0682 3.4976-.1867l-5.0168-8.5926c-.0332-.0569-.0514-.1182-.0825-.1758zm1.6001-35.1099c8.0882 0 14.645 2.9392 14.645 6.565s-6.5568 6.565-14.645 6.565-14.645-2.9392-14.645-6.565 6.5568-6.565 14.645-6.565z"/><path d="m23.6604 17.9681v.9021h2.0548v-.742c.4034.0255.8857.0255 1.3427.0255h.5074v.7165h2.0044v-.8221c3.678-.3998 5.4303-1.6858 5.4303-3.5601 0-.7293-.0755-1.0461-.4065-1.7914h-2.7167c.2804.691.3813 1.0365.3813 1.6729 0 .8222-.7847 1.4874-2.6884 1.7786v-2.3511h-2.0044v2.5237c-.2521.0128-.5074.0258-.8099.0258-.3562 0-.6871-.013-1.0402-.0258v-2.5237h-2.0548v2.3384c-1.8531-.2785-2.8176-.8766-2.8176-1.833 0-.5437.1008-.8605.3277-1.5385h-2.8649c-.2299.5693-.3056.9692-.3056 1.4969 0 1.8873 1.9036 3.2275 5.6604 3.7073z"/><path d="m56.5347 30.8232c-1.124-.8271-2.6934-.6631-3.6226.377l-13.3428 14.9272-7.8853-6.8311c-1.0015-.8677-2.4834-.8828-3.502-.0371-1.0195.8457-1.2773 2.3047-.6094 3.4487l9.9004 16.957c.4829.8271 1.3667 1.3374 2.3247 1.3423h.0137c.9526 0 1.8354-.5005 2.3242-1.3184l15.1191-25.2954c.716-1.1976.4045-2.7435-.72-3.5702z"/></svg>

<?xml version="1.0" encoding="utf-8"?>
<!-- Generator: Adobe Illustrator 18.0.0, SVG Export Plug-In . SVG Version: 6.00 Build 0)  -->
<svg version="1.2" baseProfile="tiny" xmlns="http://www.w3.org/2000/svg" xmlns:xlink="http://www.w3.org/1999/xlink" x="0px"
	 y="0px" width="64px" height="64px" viewBox="0 0 64 64" xml:space="preserve">
<g id="_x36_4px">
	<rect fill="none" width="64" height="64"/>
</g>
<g id="icon">
	<g>
		<path d="M24.8999,44.0449c-10.1519-0.5175-12.4477-4.6852-12.6968-5.3868c-0.0898-0.2529-0.0884-0.3882-0.0303-0.4468
			c2.9267,2.0229,7.1838,3.3891,12.0806,3.7124c-0.188-1.8437,0.5087-3.7247,2.0127-4.973c2.1499-1.7837,5.2725-1.749,7.3823,0.0781
			l3.5528,3.0778C41.9448,38.222,45,35.0987,45,31.4925v-5.0014c0-0.2245-0.0339-0.4433-0.0573-0.6639
			c-1.2642,1.6137-6.4448,7.2704-17.9099,7.2704c-11.9704,0-14.5641-4.6913-14.8298-5.4396
			c-0.0898-0.2529-0.0884-0.3882-0.0303-0.4468C15.5396,29.5384,20.6644,31,26.5016,31C36.8746,31,45,26.382,45,20.4925
			c0-0.8654,0-4.1329,0-5.0014C45,9.6079,36.8746,5,26.5016,5C16.1256,5,8,9.6079,8,15.4911c0,0.8685,0,4.136,0,5.0014
			c0,1.0507,0.269,2.0582,0.7529,3.009C8.2713,24.4462,8,25.4464,8,26.4911v5.0014c0,1.0484,0.2683,2.0538,0.7501,3.0027
			C8.2677,35.4415,8,36.4446,8,37.4911v5.0014C8,48.382,16.1256,53,26.5016,53c1.2004,0,2.3665-0.0682,3.4976-0.1867l-5.0168-8.5926
			C24.9492,44.1638,24.931,44.1025,24.8999,44.0449z M26.5,8.935c8.0882,0,14.645,2.9392,14.645,6.565s-6.5568,6.565-14.645,6.565
			S11.855,19.1258,11.855,15.5S18.4118,8.935,26.5,8.935z"/>
		<path d="M23.6604,17.9681v0.9021h2.0548v-0.742c0.4034,0.0255,0.8857,0.0255,1.3427,0.0255h0.5074v0.7165h2.0044v-0.8221
			C33.2477,17.6483,35,16.3623,35,14.488c0-0.7293-0.0755-1.0461-0.4065-1.7914h-2.7167c0.2804,0.691,0.3813,1.0365,0.3813,1.6729
			c0,0.8222-0.7847,1.4874-2.6884,1.7786V13.797h-2.0044v2.5237c-0.2521,0.0128-0.5074,0.0258-0.8099,0.0258
			c-0.3562,0-0.6871-0.013-1.0402-0.0258V13.797h-2.0548v2.3384c-1.8531-0.2785-2.8176-0.8766-2.8176-1.833
			c0-0.5437,0.1008-0.8605,0.3277-1.5385h-2.8649C18.0757,13.3332,18,13.7331,18,14.2608
			C18,16.1481,19.9036,17.4883,23.6604,17.9681z"/>
		<path d="M56.5347,30.8232c-1.124-0.8271-2.6934-0.6631-3.6226,0.377L39.5693,46.1274l-7.8853-6.8311
			c-1.0015-0.8677-2.4834-0.8828-3.502-0.0371c-1.0195,0.8457-1.2773,2.3047-0.6094,3.4487l9.9004,16.957
			c0.4829,0.8271,1.3667,1.3374,2.3247,1.3423c0.0044,0,0.0093,0,0.0137,0c0.9526,0,1.8354-0.5005,2.3242-1.3184l15.1191-25.2954
			C57.9707,33.1958,57.6592,31.6499,56.5347,30.8232z"/>
	</g>
</g>
</svg>
